Yaru++/mimetypes/scalable/application-x-img.svg

<svg height="256" viewBox="0 0 67.73 67.73" width="256" xmlns="http://www.w3.org/2000/svg" xmlns:xlink="http://www.w3.org/1999/xlink"><linearGradient id="a" gradientTransform="matrix(0 -.11988342 .11987999 0 .362761 62.7494)" gradientUnits="userSpaceOnUse" x1="529.65515" x2="-35.310345" y1="401.58368" y2="119.09284"><stop offset="0" stop-color="#f2f2f2"/><stop offset="1" stop-color="#f9f9f9"/></linearGradient><linearGradient id="b" gradientUnits="userSpaceOnUse" x1="88" x2="488" y1="88" y2="488"><stop offset="0" stop-opacity=".588235"/><stop offset=".88" stop-opacity="0"/><stop offset="1"/></linearGradient><filter id="c" color-interpolation-filters="sRGB" height="1.087725" width="1.105998" x="-.052999" y="-.043863"><feGaussianBlur stdDeviation="8.4801079"/></filter><filter id="d" color-interpolation-filters="sRGB" height="1.021931" width="1.0265" x="-.01325" y="-.010966"><feGaussianBlur stdDeviation="2.120027"/></filter><path d="m20.703991 3.4856495c-9.338465 0-10.343274.959178-10.297506 10.3165315v19.315345 19.315344c-.04577 9.357355.959041 10.316531 10.297506 10.316531h25.969365c9.338465 0 10.297506-.959068 10.297506-10.316531v-19.315344-19.315345c0-9.3574645-.959041-10.3165315-10.297506-10.3165315z" fill="none" opacity=".2" stroke="#000" stroke-width="1.058281"/><path d="m189.84323 74c-70.59344 0-78.18921 7.250835-77.84323 77.98706v146.01294 146.01294c-.34598 70.73623 7.24979 77.98706 77.84323 77.98706h196.31354c70.59344 0 76.00668-7.27384 77.84323-77.98706v-146.01294-146.01294c0-70.737067-7.24979-77.98706-77.84323-77.98706z" filter="url(#d)" opacity=".1" transform="matrix(.13228516 0 0 .13228516 -4.409451 -6.038882)"/><path d="m189.84323 74c-70.59344 0-78.18921 7.250835-77.84323 77.98706v146.01294 146.01294c-.34598 70.73623 7.24979 77.98706 77.84323 77.98706h196.31354c70.59344 0 77.84323-7.24999 77.84323-77.98706v-146.01294-146.01294c0-70.737067-7.24979-77.98706-77.84323-77.98706z" fill="url(#b)" filter="url(#c)" opacity=".3" transform="matrix(.13228516 0 0 .13228516 -4.409451 -6.038882)"/><path d="m20.703991 3.4856495c-9.338465 0-10.343274.959178-10.297506 10.3165315v19.315345 19.315344c-.04577 9.357355.959041 10.316531 10.297506 10.316531h25.969365c9.338465 0 10.297506-.959068 10.297506-10.316531v-19.315344-19.315345c0-9.3574645-.959041-10.3165315-10.297506-10.3165315z" fill="url(#a)"/><path d="m20.70406 3.4856495c-9.338467 0-10.343343.95934-10.297575 10.3166925v.529141c-.045768-9.3573535.959108-10.3166925 10.297575-10.3166925h25.969228c9.338467 0 10.297574.959228 10.297574 10.3166925v-.529141c0-9.3574645-.959107-10.3166925-10.297574-10.3166925z" fill="#fff" opacity=".6"/><path d="m127.33398 61.226562c-35.270643 0-63.95898 28.671003-63.95898 63.941408 0 35.2704 28.688337 63.95508 63.95898 63.95508 35.27065 0 63.94336-28.68468 63.94336-63.95508 0-35.270405-28.67271-63.941408-63.94336-63.941408zm0 7.990235c30.95058 0 55.95313 25.000309 55.95313 55.951173 0 30.95086-25.00255 55.9668-55.95313 55.9668-30.950572 0-55.955074-25.01594-55.955074-55.9668 0-30.950864 25.004502-55.951173 55.955074-55.951173zm0 35.978513c-10.98894 0-19.98828 8.98416-19.98828 19.97266s8.99934 19.98828 19.98828 19.98828c10.98895 0 19.97266-8.99978 19.97266-19.98828s-8.98371-19.97266-19.97266-19.97266zm0 7.99024c6.66902 0 11.98438 5.31367 11.98438 11.98242 0 6.66874-5.31536 11.99805-11.98438 11.99805-6.66901 0-11.99804-5.32931-11.99804-11.99805 0-6.66875 5.32903-11.98242 11.99804-11.98242z" fill="#1a7fd4" transform="matrix(.26457031153 0 0 .26457031536 .00000129112 .00000675527)"/></svg>

<?xml version="1.0" encoding="UTF-8" standalone="no"?>
<svg
   xmlns:dc="http://purl.org/dc/elements/1.1/"
   xmlns:cc="http://creativecommons.org/ns#"
   xmlns:rdf="http://www.w3.org/1999/02/22-rdf-syntax-ns#"
   xmlns:svg="http://www.w3.org/2000/svg"
   xmlns="http://www.w3.org/2000/svg"
   xmlns:sodipodi="http://sodipodi.sourceforge.net/DTD/sodipodi-0.dtd"
   xmlns:inkscape="http://www.inkscape.org/namespaces/inkscape"
   height="256"
   viewBox="0 0 67.73 67.73"
   width="256"
   version="1.1"
   id="svg42"
   sodipodi:docname="application-x-img.svg"
   inkscape:version="0.92.5 (2060ec1f9f, 2020-04-08)">
  <metadata
     id="metadata48">
    <rdf:RDF>
      <cc:Work
         rdf:about="">
        <dc:format>image/svg+xml</dc:format>
        <dc:type
           rdf:resource="http://purl.org/dc/dcmitype/StillImage" />
      </cc:Work>
    </rdf:RDF>
  </metadata>
  <defs
     id="defs46" />
  <sodipodi:namedview
     pagecolor="#ffffff"
     bordercolor="#666666"
     borderopacity="1"
     objecttolerance="10"
     gridtolerance="10"
     guidetolerance="10"
     inkscape:pageopacity="0"
     inkscape:pageshadow="2"
     inkscape:window-width="1920"
     inkscape:window-height="1016"
     id="namedview44"
     showgrid="false"
     inkscape:zoom="3.4516666"
     inkscape:cx="127.33085"
     inkscape:cy="141.41395"
     inkscape:window-x="0"
     inkscape:window-y="27"
     inkscape:window-maximized="1"
     inkscape:current-layer="g40" />
  <linearGradient
     gradientUnits="userSpaceOnUse"
     x1="334.86633"
     x2="334.86633"
     y1="140.23035"
     y2="160.63107"
     id="linearGradient6">
    <stop
       offset="0"
       stop-color="#808080"
       id="stop2" />
    <stop
       offset="1"
       stop-color="#999"
       id="stop4" />
  </linearGradient>
  <linearGradient
     id="a"
     gradientTransform="matrix(0 -.11988342 .11987999 0 .362761 62.7494)"
     gradientUnits="userSpaceOnUse"
     x1="529.65515"
     x2="-35.310345"
     y1="401.58368"
     y2="119.09284">
    <stop
       offset="0"
       stop-color="#f2f2f2"
       id="stop8" />
    <stop
       offset="1"
       stop-color="#f9f9f9"
       id="stop10" />
  </linearGradient>
  <linearGradient
     id="b"
     gradientUnits="userSpaceOnUse"
     x1="88"
     x2="488"
     y1="88"
     y2="488">
    <stop
       offset="0"
       stop-opacity=".588235"
       id="stop13" />
    <stop
       offset=".88"
       stop-opacity="0"
       id="stop15" />
    <stop
       offset="1"
       id="stop17" />
  </linearGradient>
  <filter
     id="c"
     color-interpolation-filters="sRGB"
     height="1.087725"
     width="1.105998"
     x="-.052999"
     y="-.043863">
    <feGaussianBlur
       stdDeviation="8.4801079"
       id="feGaussianBlur20" />
  </filter>
  <filter
     id="d"
     color-interpolation-filters="sRGB"
     height="1.021931"
     width="1.0265"
     x="-.01325"
     y="-.010966">
    <feGaussianBlur
       stdDeviation="2.120027"
       id="feGaussianBlur23" />
  </filter>
  <path
     d="m20.703991 3.4856495c-9.338465 0-10.343274.959178-10.297506 10.3165315v19.315345 19.315344c-.04577 9.357355.959041 10.316531 10.297506 10.316531h25.969365c9.338465 0 10.297506-.959068 10.297506-10.316531v-19.315344-19.315345c0-9.3574645-.959041-10.3165315-10.297506-10.3165315z"
     fill="none"
     opacity=".2"
     stroke="#000"
     stroke-width="1.058281"
     id="path26" />
  <path
     d="m189.84323 74c-70.59344 0-78.18921 7.250835-77.84323 77.98706v146.01294 146.01294c-.34598 70.73623 7.24979 77.98706 77.84323 77.98706h196.31354c70.59344 0 76.00668-7.27384 77.84323-77.98706v-146.01294-146.01294c0-70.737067-7.24979-77.98706-77.84323-77.98706z"
     filter="url(#d)"
     opacity=".1"
     transform="matrix(.13228516 0 0 .13228516 -4.409451 -6.038882)"
     id="path28" />
  <path
     d="m189.84323 74c-70.59344 0-78.18921 7.250835-77.84323 77.98706v146.01294 146.01294c-.34598 70.73623 7.24979 77.98706 77.84323 77.98706h196.31354c70.59344 0 77.84323-7.24999 77.84323-77.98706v-146.01294-146.01294c0-70.737067-7.24979-77.98706-77.84323-77.98706z"
     fill="url(#b)"
     filter="url(#c)"
     opacity=".3"
     transform="matrix(.13228516 0 0 .13228516 -4.409451 -6.038882)"
     id="path30" />
  <path
     d="m20.703991 3.4856495c-9.338465 0-10.343274.959178-10.297506 10.3165315v19.315345 19.315344c-.04577 9.357355.959041 10.316531 10.297506 10.316531h25.969365c9.338465 0 10.297506-.959068 10.297506-10.316531v-19.315344-19.315345c0-9.3574645-.959041-10.3165315-10.297506-10.3165315z"
     fill="url(#a)"
     id="path32" />
  <path
     d="m20.70406 3.4856495c-9.338467 0-10.343343.95934-10.297575 10.3166925v.529141c-.045768-9.3573535.959108-10.3166925 10.297575-10.3166925h25.969228c9.338467 0 10.297574.959228 10.297574 10.3166925v-.529141c0-9.3574645-.959107-10.3166925-10.297574-10.3166925z"
     fill="#fff"
     opacity=".6"
     id="path34" />
  <g
     style="enable-background:new;stroke:#8f8f8f;stroke-width:1.133351;stroke-linecap:square;stroke-linejoin:round;fill:none"
     transform="matrix(1.8659699 0 0 1.8658936 -593.27731 -246.51303)"
     id="g40">
    <path
       style="color:#000000;font-style:normal;font-variant:normal;font-weight:normal;font-stretch:normal;font-size:medium;line-height:normal;font-family:sans-serif;font-variant-ligatures:normal;font-variant-position:normal;font-variant-caps:normal;font-variant-numeric:normal;font-variant-alternates:normal;font-feature-settings:normal;text-indent:0;text-align:start;text-decoration:none;text-decoration-line:none;text-decoration-style:solid;text-decoration-color:#000000;letter-spacing:normal;word-spacing:normal;text-transform:none;writing-mode:lr-tb;direction:ltr;text-orientation:mixed;dominant-baseline:auto;baseline-shift:baseline;text-anchor:start;white-space:normal;shape-padding:0;clip-rule:nonzero;display:inline;overflow:visible;visibility:visible;opacity:1;isolation:auto;mix-blend-mode:normal;color-interpolation:sRGB;color-interpolation-filters:linearRGB;solid-color:#000000;solid-opacity:1;vector-effect:none;fill:#1a7fd4;fill-opacity:1;fill-rule:nonzero;stroke:none;stroke-width:7.99317026;stroke-linecap:butt;stroke-linejoin:miter;stroke-miterlimit:4;stroke-dasharray:none;stroke-dashoffset:0;stroke-opacity:1;color-rendering:auto;image-rendering:auto;shape-rendering:auto;text-rendering:auto;enable-background:accumulate"
       d="M 127.33398 61.226562 C 92.063337 61.226562 63.375 89.897565 63.375 125.16797 C 63.375 160.43837 92.063337 189.12305 127.33398 189.12305 C 162.60463 189.12305 191.27734 160.43837 191.27734 125.16797 C 191.27734 89.897565 162.60463 61.226562 127.33398 61.226562 z M 127.33398 69.216797 C 158.28456 69.216797 183.28711 94.217106 183.28711 125.16797 C 183.28711 156.11883 158.28456 181.13477 127.33398 181.13477 C 96.383408 181.13477 71.378906 156.11883 71.378906 125.16797 C 71.378906 94.217106 96.383408 69.216797 127.33398 69.216797 z M 127.33398 105.19531 C 116.34504 105.19531 107.3457 114.17947 107.3457 125.16797 C 107.3457 136.15647 116.34504 145.15625 127.33398 145.15625 C 138.32293 145.15625 147.30664 136.15647 147.30664 125.16797 C 147.30664 114.17947 138.32293 105.19531 127.33398 105.19531 z M 127.33398 113.18555 C 134.003 113.18555 139.31836 118.49922 139.31836 125.16797 C 139.31836 131.83671 134.003 137.16602 127.33398 137.16602 C 120.66497 137.16602 115.33594 131.83671 115.33594 125.16797 C 115.33594 118.49922 120.66497 113.18555 127.33398 113.18555 z "
       transform="matrix(0.14178702,0,0,0.14179282,317.94581,132.11527)"
       id="circle36" />
  </g>
</svg>
